X: 3
T: Eamonn McGivney's
R: hornpipe
M: 4/4
L: 1/8
K: Emin
"Em" e2 ed efge | "G" d2 B2 B2 dB | "D" ABde faef | "D" d2 A2 A2 Bd |"Em" e2 ef g2 fe | "G" dBGB d2 cB | "D" AGFE DEFA | "Em" G2 E2 E2 :|"Em" BGEG BGEG | "Em" BAGF E2 FG | "D" AFDF AFDF | "D" AGFE D2 EF |"Em" GFGB g2 fe | "G" dBGB d2 cB | "D" AGFE DEFA | "Em" G2 E2 E2 :|


Tune 2020	Setting 15428

